(RAILROAD-V1)
(T17  D=2 CR=0 - ZMIN=-6.2 - FLAT END MILL)
G90 G94 G91.1 G40 G49 G17
G21

(2D POCKET1)
M5
M9
T17 M6
(SINGLE FLUTE)
S14000 M3
G54
M8
G0 X6.772 Y21.202
G43 Z15 H1
Z5
G1 Z-0.8 F150
Y21.209 Z-0.852
Y21.229 Z-0.9
Y21.261 Z-0.941
Y21.302 Z-0.973
Y21.35 Z-0.993
Y21.402 Z-1
Y23.188
Y23.578 F300
G3 X6.453 Y23.897 I-0.319 J0
G1 X-6.453
G3 X-6.772 Y23.578 I0 J-0.319
G1 Y23.183
Y8.812
Y8.422
G3 X-6.453 Y8.103 I0.319 J0
G1 X6.453
G3 X6.772 Y8.422 I0 J0.319
G1 Y8.817
X8.337 Y23.176
Y25.142
G3 X8.017 Y25.462 I-0.319 J0
G1 X-8.017
G3 X-8.337 Y25.142 I0 J-0.319
G1 Y23.181
Y8.824
Y6.858
G3 X-8.017 Y6.538 I0.319 J0
G1 X8.017
G3 X8.337 Y6.858 I0 J0.319
G1 Y8.819
X9.901 Y23.178
Y26.707
G3 X9.582 Y27.026 I-0.319 J0
G1 X-9.582
G3 X-9.901 Y26.707 I0 J-0.319
G1 Y23.179
Y8.822
Y5.293
G3 X-9.582 Y4.974 I0.319 J0
G1 X9.582
G3 X9.901 Y5.293 I0 J0.319
G1 Y8.821
X11.466 Y23.18
Y28.271
G3 X11.146 Y28.591 I-0.319 J0
G1 X-11.146
G3 X-11.466 Y28.271 I0 J-0.319
G1 Y23.177
Y8.82
Y3.729
G3 X-11.146 Y3.409 I0.319 J0
G1 X11.146
G3 X11.466 Y3.729 I0 J0.319
G1 Y8.823
X13.03 Y23.182
Y29.836
G3 X12.711 Y30.155 I-0.319 J0
G1 X-12.711
G3 X-13.03 Y29.836 I0 J-0.319
G1 Y23.188
Y8.818
Y2.164
G3 X-12.711 Y1.845 I0.319 J0
G1 X12.711
G3 X13.03 Y2.164 I0 J0.319
G1 Y8.812
X14.594 Y23.185
Y31.4
G3 X14.275 Y31.719 I-0.319 J0
G1 X-14.275
G3 X-14.594 Y31.4 I0 J-0.319
G1 Y23.186
Y8.815
Y0.6
G3 X-14.275 Y0.281 I0.319 J0
G1 X14.275
G3 X14.594 Y0.6 I0 J0.319
G1 Y8.814
G2 X15.377 Y9.987 I1.271 J0
G3 X16.159 Y11.16 I-0.489 J1.173
G1 Y32.964
G3 X15.839 Y33.284 I-0.319 J0
G1 X-15.839
G3 X-16.159 Y32.964 I0 J-0.319
G1 Y-0.964
G3 X-15.839 Y-1.284 I0.319 J0
G1 X15.839
G3 X16.159 Y-0.964 I0 J0.319
G1 Y11.16
G2 X16.941 Y12.334 I1.271 J0
G3 X17.723 Y13.507 I-0.489 J1.173
G1 Y34.529
G3 X17.404 Y34.848 I-0.319 J0
G1 X-17.404
G3 X-17.723 Y34.529 I0 J-0.319
G1 Y-2.529
G3 X-17.404 Y-2.848 I0.319 J0
G1 X17.404
G3 X17.723 Y-2.529 I0 J0.319
G1 Y13.507
G2 X18.512 Y14.69 I1.281 J0
G3 X19.3 Y15.872 I-0.493 J1.183
G1 Y35.425
G3 X18.3 Y36.425 I-1 J0
G1 X-18.3
G3 X-19.3 Y35.425 I0 J-1
G1 Y-3.425
G3 X-18.3 Y-4.425 I1 J0
G1 X18.3
G3 X19.3 Y-3.425 I0 J1
G1 Y15.872
G3 X19.194 Y16.049 I-0.2 J0
G1 X6.878 Y22.596
G2 X6.772 Y22.772 I0.094 J0.177
G1 Y22.824 Z-1.007 F150
Y22.872 Z-1.027
Y22.914 Z-1.059
Y22.945 Z-1.1
Y22.965 Z-1.148
Y22.972 Z-1.2
Z-1.8
Y22.979 Z-1.852
Y22.999 Z-1.9
Y23.031 Z-1.941
Y23.072 Z-1.973
Y23.12 Z-1.993
Y23.172 Z-2
Y23.188
Y23.578 F300
G3 X6.453 Y23.897 I-0.319 J0
G1 X-6.453
G3 X-6.772 Y23.578 I0 J-0.319
G1 Y23.183
Y8.812
Y8.422
G3 X-6.453 Y8.103 I0.319 J0
G1 X6.453
G3 X6.772 Y8.422 I0 J0.319
G1 Y8.817
X8.337 Y23.176
Y25.142
G3 X8.017 Y25.462 I-0.319 J0
G1 X-8.017
G3 X-8.337 Y25.142 I0 J-0.319
G1 Y23.181
Y8.824
Y6.858
G3 X-8.017 Y6.538 I0.319 J0
G1 X8.017
G3 X8.337 Y6.858 I0 J0.319
G1 Y8.819
X9.901 Y23.178
Y26.707
G3 X9.582 Y27.026 I-0.319 J0
G1 X-9.582
G3 X-9.901 Y26.707 I0 J-0.319
G1 Y23.179
Y8.822
Y5.293
G3 X-9.582 Y4.974 I0.319 J0
G1 X9.582
G3 X9.901 Y5.293 I0 J0.319
G1 Y8.821
X11.466 Y23.18
Y28.271
G3 X11.146 Y28.591 I-0.319 J0
G1 X-11.146
G3 X-11.466 Y28.271 I0 J-0.319
G1 Y23.177
Y8.82
Y3.729
G3 X-11.146 Y3.409 I0.319 J0
G1 X11.146
G3 X11.466 Y3.729 I0 J0.319
G1 Y8.823
X13.03 Y23.182
Y29.836
G3 X12.711 Y30.155 I-0.319 J0
G1 X-12.711
G3 X-13.03 Y29.836 I0 J-0.319
G1 Y23.188
Y8.818
Y2.164
G3 X-12.711 Y1.845 I0.319 J0
G1 X12.711
G3 X13.03 Y2.164 I0 J0.319
G1 Y8.812
X14.594 Y23.185
Y31.4
G3 X14.275 Y31.719 I-0.319 J0
G1 X-14.275
G3 X-14.594 Y31.4 I0 J-0.319
G1 Y23.186
Y8.815
Y0.6
G3 X-14.275 Y0.281 I0.319 J0
G1 X14.275
G3 X14.594 Y0.6 I0 J0.319
G1 Y8.814
G2 X15.377 Y9.987 I1.271 J0
G3 X16.159 Y11.16 I-0.489 J1.173
G1 Y32.964
G3 X15.839 Y33.284 I-0.319 J0
G1 X-15.839
G3 X-16.159 Y32.964 I0 J-0.319
G1 Y-0.964
G3 X-15.839 Y-1.284 I0.319 J0
G1 X15.839
G3 X16.159 Y-0.964 I0 J0.319
G1 Y11.16
G2 X16.941 Y12.334 I1.271 J0
G3 X17.723 Y13.507 I-0.489 J1.173
G1 Y34.529
G3 X17.404 Y34.848 I-0.319 J0
G1 X-17.404
G3 X-17.723 Y34.529 I0 J-0.319
G1 Y-2.529
G3 X-17.404 Y-2.848 I0.319 J0
G1 X17.404
G3 X17.723 Y-2.529 I0 J0.319
G1 Y13.507
G2 X18.512 Y14.69 I1.281 J0
G3 X19.3 Y15.872 I-0.493 J1.183
G1 Y35.425
G3 X18.3 Y36.425 I-1 J0
G1 X-18.3
G3 X-19.3 Y35.425 I0 J-1
G1 Y-3.425
G3 X-18.3 Y-4.425 I1 J0
G1 X18.3
G3 X19.3 Y-3.425 I0 J1
G1 Y15.872
G3 X19.194 Y16.049 I-0.2 J0
G1 X6.878 Y22.596
G2 X6.772 Y22.772 I0.094 J0.177
G1 Y22.824 Z-2.007 F150
Y22.872 Z-2.027
Y22.914 Z-2.059
Y22.945 Z-2.1
Y22.965 Z-2.148
Y22.972 Z-2.2
Z-2.8
Y22.979 Z-2.852
Y22.999 Z-2.9
Y23.031 Z-2.941
Y23.072 Z-2.973
Y23.12 Z-2.993
Y23.172 Z-3
Y23.188
Y23.578 F300
G3 X6.453 Y23.897 I-0.319 J0
G1 X-6.453
G3 X-6.772 Y23.578 I0 J-0.319
G1 Y23.183
Y8.812
Y8.422
G3 X-6.453 Y8.103 I0.319 J0
G1 X6.453
G3 X6.772 Y8.422 I0 J0.319
G1 Y8.817
X8.337 Y23.176
Y25.142
G3 X8.017 Y25.462 I-0.319 J0
G1 X-8.017
G3 X-8.337 Y25.142 I0 J-0.319
G1 Y23.181
Y8.824
Y6.858
G3 X-8.017 Y6.538 I0.319 J0
G1 X8.017
G3 X8.337 Y6.858 I0 J0.319
G1 Y8.819
X9.901 Y23.178
Y26.707
G3 X9.582 Y27.026 I-0.319 J0
G1 X-9.582
G3 X-9.901 Y26.707 I0 J-0.319
G1 Y23.179
Y8.822
Y5.293
G3 X-9.582 Y4.974 I0.319 J0
G1 X9.582
G3 X9.901 Y5.293 I0 J0.319
G1 Y8.821
X11.466 Y23.18
Y28.271
G3 X11.146 Y28.591 I-0.319 J0
G1 X-11.146
G3 X-11.466 Y28.271 I0 J-0.319
G1 Y23.177
Y8.82
Y3.729
G3 X-11.146 Y3.409 I0.319 J0
G1 X11.146
G3 X11.466 Y3.729 I0 J0.319
G1 Y8.823
X13.03 Y23.182
Y29.836
G3 X12.711 Y30.155 I-0.319 J0
G1 X-12.711
G3 X-13.03 Y29.836 I0 J-0.319
G1 Y23.188
Y8.818
Y2.164
G3 X-12.711 Y1.845 I0.319 J0
G1 X12.711
G3 X13.03 Y2.164 I0 J0.319
G1 Y8.812
X14.594 Y23.185
Y31.4
G3 X14.275 Y31.719 I-0.319 J0
G1 X-14.275
G3 X-14.594 Y31.4 I0 J-0.319
G1 Y23.186
Y8.815
Y0.6
G3 X-14.275 Y0.281 I0.319 J0
G1 X14.275
G3 X14.594 Y0.6 I0 J0.319
G1 Y8.814
G2 X15.377 Y9.987 I1.271 J0
G3 X16.159 Y11.16 I-0.489 J1.173
G1 Y32.964
G3 X15.839 Y33.284 I-0.319 J0
G1 X-15.839
G3 X-16.159 Y32.964 I0 J-0.319
G1 Y-0.964
G3 X-15.839 Y-1.284 I0.319 J0
G1 X15.839
G3 X16.159 Y-0.964 I0 J0.319
G1 Y11.16
G2 X16.941 Y12.334 I1.271 J0
G3 X17.723 Y13.507 I-0.489 J1.173
G1 Y34.529
G3 X17.404 Y34.848 I-0.319 J0
G1 X-17.404
G3 X-17.723 Y34.529 I0 J-0.319
G1 Y-2.529
G3 X-17.404 Y-2.848 I0.319 J0
G1 X17.404
G3 X17.723 Y-2.529 I0 J0.319
G1 Y13.507
G2 X18.512 Y14.69 I1.281 J0
G3 X19.3 Y15.872 I-0.493 J1.183
G1 Y35.425
G3 X18.3 Y36.425 I-1 J0
G1 X-18.3
G3 X-19.3 Y35.425 I0 J-1
G1 Y-3.425
G3 X-18.3 Y-4.425 I1 J0
G1 X18.3
G3 X19.3 Y-3.425 I0 J1
G1 Y15.872
G3 X19.194 Y16.049 I-0.2 J0
G1 X6.878 Y22.596
G2 X6.772 Y22.772 I0.094 J0.177
G1 Y22.824 Z-3.007 F150
Y22.872 Z-3.027
Y22.914 Z-3.059
Y22.945 Z-3.1
Y22.965 Z-3.148
Y22.972 Z-3.2
Z-3.8
Y22.979 Z-3.852
Y22.999 Z-3.9
Y23.031 Z-3.941
Y23.072 Z-3.973
Y23.12 Z-3.993
Y23.172 Z-4
Y23.188
Y23.578 F300
G3 X6.453 Y23.897 I-0.319 J0
G1 X-6.453
G3 X-6.772 Y23.578 I0 J-0.319
G1 Y23.183
Y8.812
Y8.422
G3 X-6.453 Y8.103 I0.319 J0
G1 X6.453
G3 X6.772 Y8.422 I0 J0.319
G1 Y8.817
X8.337 Y23.176
Y25.142
G3 X8.017 Y25.462 I-0.319 J0
G1 X-8.017
G3 X-8.337 Y25.142 I0 J-0.319
G1 Y23.181
Y8.824
Y6.858
G3 X-8.017 Y6.538 I0.319 J0
G1 X8.017
G3 X8.337 Y6.858 I0 J0.319
G1 Y8.819
X9.901 Y23.178
Y26.707
G3 X9.582 Y27.026 I-0.319 J0
G1 X-9.582
G3 X-9.901 Y26.707 I0 J-0.319
G1 Y23.179
Y8.822
Y5.293
G3 X-9.582 Y4.974 I0.319 J0
G1 X9.582
G3 X9.901 Y5.293 I0 J0.319
G1 Y8.821
X11.466 Y23.18
Y28.271
G3 X11.146 Y28.591 I-0.319 J0
G1 X-11.146
G3 X-11.466 Y28.271 I0 J-0.319
G1 Y23.177
Y8.82
Y3.729
G3 X-11.146 Y3.409 I0.319 J0
G1 X11.146
G3 X11.466 Y3.729 I0 J0.319
G1 Y8.823
X13.03 Y23.182
Y29.836
G3 X12.711 Y30.155 I-0.319 J0
G1 X-12.711
G3 X-13.03 Y29.836 I0 J-0.319
G1 Y23.188
Y8.818
Y2.164
G3 X-12.711 Y1.845 I0.319 J0
G1 X12.711
G3 X13.03 Y2.164 I0 J0.319
G1 Y8.812
X14.594 Y23.185
Y31.4
G3 X14.275 Y31.719 I-0.319 J0
G1 X-14.275
G3 X-14.594 Y31.4 I0 J-0.319
G1 Y23.186
Y8.815
Y0.6
G3 X-14.275 Y0.281 I0.319 J0
G1 X14.275
G3 X14.594 Y0.6 I0 J0.319
G1 Y8.814
G2 X15.377 Y9.987 I1.271 J0
G3 X16.159 Y11.16 I-0.489 J1.173
G1 Y32.964
G3 X15.839 Y33.284 I-0.319 J0
G1 X-15.839
G3 X-16.159 Y32.964 I0 J-0.319
G1 Y-0.964
G3 X-15.839 Y-1.284 I0.319 J0
G1 X15.839
G3 X16.159 Y-0.964 I0 J0.319
G1 Y11.16
G2 X16.941 Y12.334 I1.271 J0
G3 X17.723 Y13.507 I-0.489 J1.173
G1 Y34.529
G3 X17.404 Y34.848 I-0.319 J0
G1 X-17.404
G3 X-17.723 Y34.529 I0 J-0.319
G1 Y-2.529
G3 X-17.404 Y-2.848 I0.319 J0
G1 X17.404
G3 X17.723 Y-2.529 I0 J0.319
G1 Y13.507
G2 X18.512 Y14.69 I1.281 J0
G3 X19.3 Y15.872 I-0.493 J1.183
G1 Y35.425
G3 X18.3 Y36.425 I-1 J0
G1 X-18.3
G3 X-19.3 Y35.425 I0 J-1
G1 Y-3.425
G3 X-18.3 Y-4.425 I1 J0
G1 X18.3
G3 X19.3 Y-3.425 I0 J1
G1 Y15.872
G3 X19.194 Y16.049 I-0.2 J0
G1 X6.878 Y22.596
G2 X6.772 Y22.772 I0.094 J0.177
G1 Y22.824 Z-4.007 F150
Y22.872 Z-4.027
Y22.914 Z-4.059
Y22.945 Z-4.1
Y22.965 Z-4.148
Y22.972 Z-4.2
Z-4.8
Y22.979 Z-4.852
Y22.999 Z-4.9
Y23.031 Z-4.941
Y23.072 Z-4.973
Y23.12 Z-4.993
Y23.172 Z-5
Y23.188
Y23.578 F300
G3 X6.453 Y23.897 I-0.319 J0
G1 X-6.453
G3 X-6.772 Y23.578 I0 J-0.319
G1 Y23.183
Y8.812
Y8.422
G3 X-6.453 Y8.103 I0.319 J0
G1 X6.453
G3 X6.772 Y8.422 I0 J0.319
G1 Y8.817
X8.337 Y23.176
Y25.142
G3 X8.017 Y25.462 I-0.319 J0
G1 X-8.017
G3 X-8.337 Y25.142 I0 J-0.319
G1 Y23.181
Y8.824
Y6.858
G3 X-8.017 Y6.538 I0.319 J0
G1 X8.017
G3 X8.337 Y6.858 I0 J0.319
G1 Y8.819
X9.901 Y23.178
Y26.707
G3 X9.582 Y27.026 I-0.319 J0
G1 X-9.582
G3 X-9.901 Y26.707 I0 J-0.319
G1 Y23.179
Y8.822
Y5.293
G3 X-9.582 Y4.974 I0.319 J0
G1 X9.582
G3 X9.901 Y5.293 I0 J0.319
G1 Y8.821
X11.466 Y23.18
Y28.271
G3 X11.146 Y28.591 I-0.319 J0
G1 X-11.146
G3 X-11.466 Y28.271 I0 J-0.319
G1 Y23.177
Y8.82
Y3.729
G3 X-11.146 Y3.409 I0.319 J0
G1 X11.146
G3 X11.466 Y3.729 I0 J0.319
G1 Y8.823
X13.03 Y23.182
Y29.836
G3 X12.711 Y30.155 I-0.319 J0
G1 X-12.711
G3 X-13.03 Y29.836 I0 J-0.319
G1 Y23.188
Y8.818
Y2.164
G3 X-12.711 Y1.845 I0.319 J0
G1 X12.711
G3 X13.03 Y2.164 I0 J0.319
G1 Y8.812
X14.594 Y23.185
Y31.4
G3 X14.275 Y31.719 I-0.319 J0
G1 X-14.275
G3 X-14.594 Y31.4 I0 J-0.319
G1 Y23.186
Y8.815
Y0.6
G3 X-14.275 Y0.281 I0.319 J0
G1 X14.275
G3 X14.594 Y0.6 I0 J0.319
G1 Y8.814
G2 X15.377 Y9.987 I1.271 J0
G3 X16.159 Y11.16 I-0.489 J1.173
G1 Y32.964
G3 X15.839 Y33.284 I-0.319 J0
G1 X-15.839
G3 X-16.159 Y32.964 I0 J-0.319
G1 Y-0.964
G3 X-15.839 Y-1.284 I0.319 J0
G1 X15.839
G3 X16.159 Y-0.964 I0 J0.319
G1 Y11.16
G2 X16.941 Y12.334 I1.271 J0
G3 X17.723 Y13.507 I-0.489 J1.173
G1 Y34.529
G3 X17.404 Y34.848 I-0.319 J0
G1 X-17.404
G3 X-17.723 Y34.529 I0 J-0.319
G1 Y-2.529
G3 X-17.404 Y-2.848 I0.319 J0
G1 X17.404
G3 X17.723 Y-2.529 I0 J0.319
G1 Y13.507
G2 X18.512 Y14.69 I1.281 J0
G3 X19.3 Y15.872 I-0.493 J1.183
G1 Y35.425
G3 X18.3 Y36.425 I-1 J0
G1 X-18.3
G3 X-19.3 Y35.425 I0 J-1
G1 Y-3.425
G3 X-18.3 Y-4.425 I1 J0
G1 X18.3
G3 X19.3 Y-3.425 I0 J1
G1 Y15.872
G3 X19.194 Y16.049 I-0.2 J0
G1 X6.878 Y22.596
G2 X6.772 Y22.772 I0.094 J0.177
G1 Y22.824 Z-5.007 F150
Y22.872 Z-5.027
Y22.914 Z-5.059
Y22.945 Z-5.1
Y22.965 Z-5.148
Y22.972 Z-5.2
Z-5.4
Y22.979 Z-5.452
Y22.999 Z-5.5
Y23.031 Z-5.541
Y23.072 Z-5.573
Y23.12 Z-5.593
Y23.172 Z-5.6
Y23.188
Y23.578 F300
G3 X6.453 Y23.897 I-0.319 J0
G1 X-6.453
G3 X-6.772 Y23.578 I0 J-0.319
G1 Y23.183
Y8.812
Y8.422
G3 X-6.453 Y8.103 I0.319 J0
G1 X6.453
G3 X6.772 Y8.422 I0 J0.319
G1 Y8.817
X8.337 Y23.176
Y25.142
G3 X8.017 Y25.462 I-0.319 J0
G1 X-8.017
G3 X-8.337 Y25.142 I0 J-0.319
G1 Y23.181
Y8.824
Y6.858
G3 X-8.017 Y6.538 I0.319 J0
G1 X8.017
G3 X8.337 Y6.858 I0 J0.319
G1 Y8.819
X9.901 Y23.178
Y26.707
G3 X9.582 Y27.026 I-0.319 J0
G1 X-9.582
G3 X-9.901 Y26.707 I0 J-0.319
G1 Y23.179
Y8.822
Y5.293
G3 X-9.582 Y4.974 I0.319 J0
G1 X9.582
G3 X9.901 Y5.293 I0 J0.319
G1 Y8.821
X11.466 Y23.18
Y28.271
G3 X11.146 Y28.591 I-0.319 J0
G1 X-11.146
G3 X-11.466 Y28.271 I0 J-0.319
G1 Y23.177
Y8.82
Y3.729
G3 X-11.146 Y3.409 I0.319 J0
G1 X11.146
G3 X11.466 Y3.729 I0 J0.319
G1 Y8.823
X13.03 Y23.182
Y29.836
G3 X12.711 Y30.155 I-0.319 J0
G1 X-12.711
G3 X-13.03 Y29.836 I0 J-0.319
G1 Y23.188
Y8.818
Y2.164
G3 X-12.711 Y1.845 I0.319 J0
G1 X12.711
G3 X13.03 Y2.164 I0 J0.319
G1 Y8.812
X14.594 Y23.185
Y31.4
G3 X14.275 Y31.719 I-0.319 J0
G1 X-14.275
G3 X-14.594 Y31.4 I0 J-0.319
G1 Y23.186
Y8.815
Y0.6
G3 X-14.275 Y0.281 I0.319 J0
G1 X14.275
G3 X14.594 Y0.6 I0 J0.319
G1 Y8.814
G2 X15.377 Y9.987 I1.271 J0
G3 X16.159 Y11.16 I-0.489 J1.173
G1 Y32.964
G3 X15.839 Y33.284 I-0.319 J0
G1 X-15.839
G3 X-16.159 Y32.964 I0 J-0.319
G1 Y-0.964
G3 X-15.839 Y-1.284 I0.319 J0
G1 X15.839
G3 X16.159 Y-0.964 I0 J0.319
G1 Y11.16
G2 X16.941 Y12.334 I1.271 J0
G3 X17.723 Y13.507 I-0.489 J1.173
G1 Y34.529
G3 X17.404 Y34.848 I-0.319 J0
G1 X-17.404
G3 X-17.723 Y34.529 I0 J-0.319
G1 Y-2.529
G3 X-17.404 Y-2.848 I0.319 J0
G1 X17.404
G3 X17.723 Y-2.529 I0 J0.319
G1 Y13.507
G2 X18.512 Y14.69 I1.281 J0
G3 X19.3 Y15.872 I-0.493 J1.183
G1 Y35.425
G3 X18.3 Y36.425 I-1 J0
G1 X-18.3
G3 X-19.3 Y35.425 I0 J-1
G1 Y-3.425
G3 X-18.3 Y-4.425 I1 J0
G1 X18.3
G3 X19.3 Y-3.425 I0 J1
G1 Y15.872
G3 X19.194 Y16.049 I-0.2 J0
G1 X6.878 Y22.596
G2 X6.772 Y22.772 I0.094 J0.177
G1 Y22.824 Z-5.607 F150
Y22.872 Z-5.627
Y22.914 Z-5.659
Y22.945 Z-5.7
Y22.965 Z-5.748
Y22.972 Z-5.8
Z-6
Y22.979 Z-6.052
Y22.999 Z-6.1
Y23.031 Z-6.141
Y23.072 Z-6.173
Y23.12 Z-6.193
Y23.172 Z-6.2
Y23.188
Y23.578 F300
G3 X6.453 Y23.897 I-0.319 J0
G1 X-6.453
G3 X-6.772 Y23.578 I0 J-0.319
G1 Y23.183
Y8.812
Y8.422
G3 X-6.453 Y8.103 I0.319 J0
G1 X6.453
G3 X6.772 Y8.422 I0 J0.319
G1 Y8.817
X8.337 Y23.176
Y25.142
G3 X8.017 Y25.462 I-0.319 J0
G1 X-8.017
G3 X-8.337 Y25.142 I0 J-0.319
G1 Y23.181
Y8.824
Y6.858
G3 X-8.017 Y6.538 I0.319 J0
G1 X8.017
G3 X8.337 Y6.858 I0 J0.319
G1 Y8.819
X9.901 Y23.178
Y26.707
G3 X9.582 Y27.026 I-0.319 J0
G1 X-9.582
G3 X-9.901 Y26.707 I0 J-0.319
G1 Y23.179
Y8.822
Y5.293
G3 X-9.582 Y4.974 I0.319 J0
G1 X9.582
G3 X9.901 Y5.293 I0 J0.319
G1 Y8.821
X11.466 Y23.18
Y28.271
G3 X11.146 Y28.591 I-0.319 J0
G1 X-11.146
G3 X-11.466 Y28.271 I0 J-0.319
G1 Y23.177
Y8.82
Y3.729
G3 X-11.146 Y3.409 I0.319 J0
G1 X11.146
G3 X11.466 Y3.729 I0 J0.319
G1 Y8.823
X13.03 Y23.182
Y29.836
G3 X12.711 Y30.155 I-0.319 J0
G1 X-12.711
G3 X-13.03 Y29.836 I0 J-0.319
G1 Y23.188
Y8.818
Y2.164
G3 X-12.711 Y1.845 I0.319 J0
G1 X12.711
G3 X13.03 Y2.164 I0 J0.319
G1 Y8.812
X14.594 Y23.185
Y31.4
G3 X14.275 Y31.719 I-0.319 J0
G1 X-14.275
G3 X-14.594 Y31.4 I0 J-0.319
G1 Y23.186
Y8.815
Y0.6
G3 X-14.275 Y0.281 I0.319 J0
G1 X14.275
G3 X14.594 Y0.6 I0 J0.319
G1 Y8.814
G2 X15.377 Y9.987 I1.271 J0
G3 X16.159 Y11.16 I-0.489 J1.173
G1 Y32.964
G3 X15.839 Y33.284 I-0.319 J0
G1 X-15.839
G3 X-16.159 Y32.964 I0 J-0.319
G1 Y-0.964
G3 X-15.839 Y-1.284 I0.319 J0
G1 X15.839
G3 X16.159 Y-0.964 I0 J0.319
G1 Y11.16
G2 X16.941 Y12.334 I1.271 J0
G3 X17.723 Y13.507 I-0.489 J1.173
G1 Y34.529
G3 X17.404 Y34.848 I-0.319 J0
G1 X-17.404
G3 X-17.723 Y34.529 I0 J-0.319
G1 Y-2.529
G3 X-17.404 Y-2.848 I0.319 J0
G1 X17.404
G3 X17.723 Y-2.529 I0 J0.319
G1 Y13.507
G2 X18.512 Y14.69 I1.281 J0
G3 X19.3 Y15.872 I-0.493 J1.183
G1 Y35.425
G3 X18.3 Y36.425 I-1 J0
G1 X-18.3
G3 X-19.3 Y35.425 I0 J-1
G1 Y-3.425
G3 X-18.3 Y-4.425 I1 J0
G1 X18.3
G3 X19.3 Y-3.425 I0 J1
G1 Y15.872
G3 X19.276 Y15.968 Z-6.173 I-0.2 J0 F600
X19.23 Y16.025 Z-6.1 I-0.176 J-0.096
X19.208 Y16.04 Z-6 I-0.13 J-0.152
G0 Z15

M9
M30
