(PCB)
(T11  D=2 CR=0 - ZMIN=-1.82 - FLAT END MILL)
G90 G94 G91.1 G40 G49 G17
G21

(2D POCKET1)
M5
M9
T11 M6
(DIAMOND OR SPIRAL)
S16000 M3
G54
M8
G0 X18.547 Y85.9
G43 Z15 H1
Z2
G1 Z1.5 F60
Z-0.3
G3 X18.555 Y85.926 Z-0.4 I-0.187 J0.07
X18.558 Y85.999 Z-0.473 I-0.195 J0.044
X18.52 Y86.09 Z-0.5 I-0.198 J-0.029
X17.48 Y85.31 I-0.52 J-0.39 F240
X18.52 Y86.09 I0.52 J0.39
X18.434 Y86.054 I-0.038 J-0.029
G1 X18.455 Y85.91
G3 X18.547 Y85.9 I0.047 J0.007
G1 Z-0.8 F60
G3 X18.555 Y85.926 Z-0.9 I-0.187 J0.07
X18.558 Y85.999 Z-0.973 I-0.195 J0.044
X18.52 Y86.09 Z-1 I-0.198 J-0.029
X17.48 Y85.31 I-0.52 J-0.39 F240
X18.52 Y86.09 I0.52 J0.39
X18.434 Y86.054 I-0.038 J-0.029
G1 X18.455 Y85.91
G3 X18.547 Y85.9 I0.047 J0.007
G1 Z-1.3 F60
G3 X18.555 Y85.926 Z-1.4 I-0.187 J0.07
X18.558 Y85.999 Z-1.473 I-0.195 J0.044
X18.52 Y86.09 Z-1.5 I-0.198 J-0.029
X17.48 Y85.31 I-0.52 J-0.39 F240
X18.52 Y86.09 I0.52 J0.39
X18.434 Y86.054 I-0.038 J-0.029
G1 X18.455 Y85.91
G3 X18.547 Y85.9 I0.047 J0.007
G1 Z-1.62 F60
G3 X18.555 Y85.926 Z-1.72 I-0.187 J0.07
X18.558 Y85.999 Z-1.793 I-0.195 J0.044
X18.52 Y86.09 Z-1.82 I-0.198 J-0.029
X17.48 Y85.31 I-0.52 J-0.39 F240
X18.52 Y86.09 I0.52 J0.39
X18.443 Y86.152 Z-1.793 I-0.16 J-0.12 F480
X18.372 Y86.17 Z-1.72 I-0.083 J-0.182
X18.345 Y86.169 Z-1.62 I-0.012 J-0.2
G0 Z5
X38.168 Y86.258
Z2
G1 Z1.5 F60
Z-0.3
G3 X38.152 Y86.28 Z-0.4 I-0.168 J-0.108
X38.096 Y86.326 Z-0.473 I-0.152 J-0.13
X38 Y86.35 Z-0.5 I-0.096 J-0.176
Y85.05 I0 J-0.65 F240
Y86.35 I0 J0.65
X37.977 Y86.26 I0 J-0.048
G1 X38.105 Y86.19
G3 X38.168 Y86.258 I0.023 J0.042
G1 Z-0.8 F60
G3 X38.152 Y86.28 Z-0.9 I-0.168 J-0.108
X38.096 Y86.326 Z-0.973 I-0.152 J-0.13
X38 Y86.35 Z-1 I-0.096 J-0.176
Y85.05 I0 J-0.65 F240
Y86.35 I0 J0.65
X37.977 Y86.26 I0 J-0.048
G1 X38.105 Y86.19
G3 X38.168 Y86.258 I0.023 J0.042
G1 Z-1.3 F60
G3 X38.152 Y86.28 Z-1.4 I-0.168 J-0.108
X38.096 Y86.326 Z-1.473 I-0.152 J-0.13
X38 Y86.35 Z-1.5 I-0.096 J-0.176
Y85.05 I0 J-0.65 F240
Y86.35 I0 J0.65
X37.977 Y86.26 I0 J-0.048
G1 X38.105 Y86.19
G3 X38.168 Y86.258 I0.023 J0.042
G1 Z-1.62 F60
G3 X38.152 Y86.28 Z-1.72 I-0.168 J-0.108
X38.096 Y86.326 Z-1.793 I-0.152 J-0.13
X38 Y86.35 Z-1.82 I-0.096 J-0.176
Y85.05 I0 J-0.65 F240
Y86.35 I0 J0.65
X37.904 Y86.326 Z-1.793 I0 J-0.2 F480
X37.848 Y86.28 Z-1.72 I0.096 J-0.176
X37.832 Y86.258 Z-1.62 I0.152 J-0.13
G0 Z5
Y0.142
Z2
G1 Z1.5 F60
Z-0.3
G3 X37.848 Y0.12 Z-0.4 I0.168 J0.108
X37.904 Y0.074 Z-0.473 I0.152 J0.13
X38 Y0.05 Z-0.5 I0.096 J0.176
Y1.35 I0 J0.65 F240
Y0.05 I0 J-0.65
X38.023 Y0.14 I0 J0.048
G1 X37.895 Y0.21
G3 X37.832 Y0.142 I-0.023 J-0.042
G1 Z-0.8 F60
G3 X37.848 Y0.12 Z-0.9 I0.168 J0.108
X37.904 Y0.074 Z-0.973 I0.152 J0.13
X38 Y0.05 Z-1 I0.096 J0.176
Y1.35 I0 J0.65 F240
Y0.05 I0 J-0.65
X38.023 Y0.14 I0 J0.048
G1 X37.895 Y0.21
G3 X37.832 Y0.142 I-0.023 J-0.042
G1 Z-1.3 F60
G3 X37.848 Y0.12 Z-1.4 I0.168 J0.108
X37.904 Y0.074 Z-1.473 I0.152 J0.13
X38 Y0.05 Z-1.5 I0.096 J0.176
Y1.35 I0 J0.65 F240
Y0.05 I0 J-0.65
X38.023 Y0.14 I0 J0.048
G1 X37.895 Y0.21
G3 X37.832 Y0.142 I-0.023 J-0.042
G1 Z-1.62 F60
G3 X37.848 Y0.12 Z-1.72 I0.168 J0.108
X37.904 Y0.074 Z-1.793 I0.152 J0.13
X38 Y0.05 Z-1.82 I0.096 J0.176
Y1.35 I0 J0.65 F240
Y0.05 I0 J-0.65
X38.096 Y0.074 Z-1.793 I0 J0.2 F480
X38.152 Y0.12 Z-1.72 I-0.096 J0.176
X38.168 Y0.142 Z-1.62 I-0.152 J0.13
G0 Z5
X18.168 Y1.258
Z2
G1 Z1.5 F60
Z-0.3
G3 X18.152 Y1.28 Z-0.4 I-0.168 J-0.108
X18.096 Y1.326 Z-0.473 I-0.152 J-0.13
X18 Y1.35 Z-0.5 I-0.096 J-0.176
Y0.05 I0 J-0.65 F240
Y1.35 I0 J0.65
X17.977 Y1.26 I0 J-0.048
G1 X18.105 Y1.19
G3 X18.168 Y1.258 I0.023 J0.042
G1 Z-0.8 F60
G3 X18.152 Y1.28 Z-0.9 I-0.168 J-0.108
X18.096 Y1.326 Z-0.973 I-0.152 J-0.13
X18 Y1.35 Z-1 I-0.096 J-0.176
Y0.05 I0 J-0.65 F240
Y1.35 I0 J0.65
X17.977 Y1.26 I0 J-0.048
G1 X18.105 Y1.19
G3 X18.168 Y1.258 I0.023 J0.042
G1 Z-1.3 F60
G3 X18.152 Y1.28 Z-1.4 I-0.168 J-0.108
X18.096 Y1.326 Z-1.473 I-0.152 J-0.13
X18 Y1.35 Z-1.5 I-0.096 J-0.176
Y0.05 I0 J-0.65 F240
Y1.35 I0 J0.65
X17.977 Y1.26 I0 J-0.048
G1 X18.105 Y1.19
G3 X18.168 Y1.258 I0.023 J0.042
G1 Z-1.62 F60
G3 X18.152 Y1.28 Z-1.72 I-0.168 J-0.108
X18.096 Y1.326 Z-1.793 I-0.152 J-0.13
X18 Y1.35 Z-1.82 I-0.096 J-0.176
Y0.05 I0 J-0.65 F240
Y1.35 I0 J0.65
X17.904 Y1.326 Z-1.793 I0 J-0.2 F480
X17.848 Y1.28 Z-1.72 I0.096 J-0.176
X17.832 Y1.258 Z-1.62 I0.152 J-0.13
G0 Z15

(2D CONTOUR1)
M8
G0 X42.85 Y89.4
Z15
Z2
G1 Z1.5 F60
Z-0.3
X42.843 Z-0.352
X42.823 Z-0.4
X42.791 Z-0.441
X42.75 Z-0.473
X42.702 Z-0.493
X42.65 Z-0.5
X42.45 F120
G3 X42.25 Y89.2 I0 J-0.2
G1 Y-2.8 F240
G2 X41.25 Y-3.8 I-1 J0
G1 X14.75
G2 X13.75 Y-2.8 I0 J1
G1 Y89.2
G2 X14.75 Y90.2 I1 J0
G1 X41.25
G2 X42.25 Y89.2 I0 J-1
G3 X42.45 Y89 I0.2 J0 F480
G1 X42.65
X42.702 Z-0.493
X42.75 Z-0.473
X42.791 Z-0.441
X42.823 Z-0.4
X42.843 Z-0.352
X42.85 Z-0.3
Y89.4
Z-0.8 F60
X42.843 Z-0.852
X42.823 Z-0.9
X42.791 Z-0.941
X42.75 Z-0.973
X42.702 Z-0.993
X42.65 Z-1
X42.45 F120
G3 X42.25 Y89.2 I0 J-0.2
G1 Y-2.8 F240
G2 X41.25 Y-3.8 I-1 J0
G1 X14.75
G2 X13.75 Y-2.8 I0 J1
G1 Y89.2
G2 X14.75 Y90.2 I1 J0
G1 X41.25
G2 X42.25 Y89.2 I0 J-1
G3 X42.45 Y89 I0.2 J0 F480
G1 X42.65
X42.702 Z-0.993
X42.75 Z-0.973
X42.791 Z-0.941
X42.823 Z-0.9
X42.843 Z-0.852
X42.85 Z-0.8
Y89.4
Z-1.3 F60
X42.843 Z-1.352
X42.823 Z-1.4
X42.791 Z-1.441
X42.75 Z-1.473
X42.702 Z-1.493
X42.65 Z-1.5
X42.45 F120
G3 X42.25 Y89.2 I0 J-0.2
G1 Y-2.8 F240
G2 X41.25 Y-3.8 I-1 J0
G1 X14.75
G2 X13.75 Y-2.8 I0 J1
G1 Y89.2
G2 X14.75 Y90.2 I1 J0
G1 X41.25
G2 X42.25 Y89.2 I0 J-1
G3 X42.45 Y89 I0.2 J0 F480
G1 X42.65
X42.702 Z-1.493
X42.75 Z-1.473
X42.791 Z-1.441
X42.823 Z-1.4
X42.843 Z-1.352
X42.85 Z-1.3
Y89.4
Z-1.62 F60
X42.843 Z-1.672
X42.823 Z-1.72
X42.791 Z-1.761
X42.75 Z-1.793
X42.702 Z-1.813
X42.65 Z-1.82
X42.45 F120
G3 X42.25 Y89.2 I0 J-0.2
G1 Y-2.8 F240
G2 X41.25 Y-3.8 I-1 J0
G1 X14.75
G2 X13.75 Y-2.8 I0 J1
G1 Y89.2
G2 X14.75 Y90.2 I1 J0
G1 X41.25
G2 X42.25 Y89.2 I0 J-1
G3 X42.45 Y89 I0.2 J0 F480
G1 X42.65
X42.702 Z-1.813
X42.75 Z-1.793
X42.791 Z-1.761
X42.823 Z-1.72
X42.843 Z-1.672
X42.85 Z-1.62
G0 Z15

M9
M30
