(BASEPLATE-NFC-TAG-HOLE)
(T14  D=2 CR=0 - ZMIN=-3.35 - FLAT END MILL)
G90 G94 G91.1 G40 G49 G17
G21

(2D POCKET1)
M5
M9
T14
(SINGLE FLUTE)
S12000 M3
G54
M8
G0 X54.392 Y75.441
G43 Z15 H1
Z5
G1 Z0.7 F180
G3 X54.366 Y75.438 Z0.602 I0.128 J-0.941
X54.297 Y75.424 Z0.529 I0.153 J-0.938
X54.204 Y75.396 Z0.5 I0.222 J-0.924
X54.834 Y73.604 Z0.396 I0.315 J-0.896
X54.204 Y75.396 Z0.292 I-0.315 J0.896
X54.834 Y73.604 Z0.187 I0.315 J-0.896
X54.204 Y75.396 Z0.083 I-0.315 J0.896
X54.834 Y73.604 Z-0.021 I0.315 J-0.896
X54.204 Y75.396 Z-0.125 I-0.315 J0.896
X54.834 Y73.604 Z-0.23 I0.315 J-0.896
X54.204 Y75.396 Z-0.334 I-0.315 J0.896
X54.834 Y73.604 Z-0.438 I0.315 J-0.896
X54.204 Y75.396 Z-0.542 I-0.315 J0.896
X54.834 Y73.604 Z-0.646 I0.315 J-0.896
X54.204 Y75.396 Z-0.751 I-0.315 J0.896
X54.834 Y73.604 Z-0.855 I0.315 J-0.896
X54.204 Y75.396 Z-0.959 I-0.315 J0.896
X53.569 Y74.5 Z-1 I0.315 J-0.896
G1 Y55.389 F360
G3 X53.889 Y55.069 I0.319 J0
G1 X54.111
G3 X54.431 Y55.389 I0 J0.319
G1 Y74.611
G3 X54.111 Y74.931 I-0.319 J0
G1 X53.885
G3 X53.569 Y74.615 I0 J-0.315
G1 Y74.5
G2 X52.785 Y73.323 I-1.275 J0
G3 X52 Y72.146 I0.49 J-1.177
G1 Y53.5
X56
Y76.5
X52
Y72.146
G3 X52.334 Y71.998 I0.2 J0
G1 X54.047 Y73.549
G2 X54.24 Y73.592 I0.134 J-0.148
G3 X54.799 Y75.408 Z-1.104 I0.279 J0.908 F180
X54.24 Y73.592 Z-1.208 I-0.279 J-0.908
X54.799 Y75.408 Z-1.313 I0.279 J0.908
X54.24 Y73.592 Z-1.417 I-0.279 J-0.908
X54.799 Y75.408 Z-1.521 I0.279 J0.908
X54.24 Y73.592 Z-1.625 I-0.279 J-0.908
X54.799 Y75.408 Z-1.73 I0.279 J0.908
X54.24 Y73.592 Z-1.834 I-0.279 J-0.908
X54.799 Y75.408 Z-1.938 I0.279 J0.908
X53.569 Y74.5 Z-2 I-0.279 J-0.908
G1 Y55.389 F360
G3 X53.889 Y55.069 I0.319 J0
G1 X54.111
G3 X54.431 Y55.389 I0 J0.319
G1 Y74.611
G3 X54.111 Y74.931 I-0.319 J0
G1 X53.885
G3 X53.569 Y74.615 I0 J-0.315
G1 Y74.5
G2 X52.785 Y73.323 I-1.275 J0
G3 X52 Y72.146 I0.49 J-1.177
G1 Y53.5
X56
Y76.5
X52
Y72.146
G3 X52.334 Y71.998 I0.2 J0
G1 X54.047 Y73.549
G2 X54.24 Y73.592 I0.134 J-0.148
G3 X54.799 Y75.408 Z-2.104 I0.279 J0.908 F180
X54.24 Y73.592 Z-2.208 I-0.279 J-0.908
X54.799 Y75.408 Z-2.313 I0.279 J0.908
X54.24 Y73.592 Z-2.417 I-0.279 J-0.908
X54.799 Y75.408 Z-2.521 I0.279 J0.908
X54.24 Y73.592 Z-2.625 I-0.279 J-0.908
X54.799 Y75.408 Z-2.73 I0.279 J0.908
X54.24 Y73.592 Z-2.834 I-0.279 J-0.908
X54.799 Y75.408 Z-2.938 I0.279 J0.908
X53.569 Y74.5 Z-3 I-0.279 J-0.908
G1 Y55.389 F360
G3 X53.889 Y55.069 I0.319 J0
G1 X54.111
G3 X54.431 Y55.389 I0 J0.319
G1 Y74.611
G3 X54.111 Y74.931 I-0.319 J0
G1 X53.885
G3 X53.569 Y74.615 I0 J-0.315
G1 Y74.5
G2 X52.785 Y73.323 I-1.275 J0
G3 X52 Y72.146 I0.49 J-1.177
G1 Y53.5
X56
Y76.5
X52
Y72.146
G3 X52.307 Y71.977 I0.2 J0
G1 X54.929 Y73.643
G3 X55.089 Y73.74 Z-3.007 I-0.409 J0.857 F180
X53.949 Y75.26 Z-3.111 I-0.57 J0.76
X55.089 Y73.74 Z-3.215 I0.57 J-0.76
X53.949 Y75.26 Z-3.319 I-0.57 J0.76
X53.569 Y74.5 Z-3.35 I0.57 J-0.76
G1 Y55.389 F360
G3 X53.889 Y55.069 I0.319 J0
G1 X54.111
G3 X54.431 Y55.389 I0 J0.319
G1 Y74.611
G3 X54.111 Y74.931 I-0.319 J0
G1 X53.885
G3 X53.569 Y74.615 I0 J-0.315
G1 Y74.5
G2 X52.785 Y73.323 I-1.275 J0
G3 X52 Y72.146 I0.49 J-1.177
G1 Y53.5
X56
Y76.5
X52
Y72.146
G3 X52.024 Y72.05 Z-3.323 I0.2 J0 F720
X52.07 Y71.994 Z-3.25 I0.176 J0.096
X52.092 Y71.978 Z-3.15 I0.13 J0.152
G0 Z15

M9
M30
